chrome/icons/caret-right.svg

<svg height="16" viewBox="256 64 576 896" width="16" xmlns="http://www.w3.org/2000/svg" xmlns:xlink="http://www.w3.org/1999/xlink">
  <path d="M336.5,960C325.5,960 315.167,958 305.5,954C295.833,950 287.333,944.417 280,937.25C272.667,930.083 266.833,921.75 262.5,912.25C258.167,902.75 256,892.5 256,881.5L256,142.5C256,131.5 258.167,121.25 262.5,111.75C266.833,102.25 272.667,93.9167 280,86.75C287.333,79.5834 295.833,74.0001 305.5,70C315.167,66.0001 325.5,64.0001 336.5,64C356.5,64.0001 374,70.5001 389,83.5L793.5,429.5C819.167,451.5 832,479 832,512C832,528.333 828.667,543.5 822,557.5C815.333,571.5 805.833,583.833 793.5,594.5L389,940.5C374,953.5 356.5,960 336.5,960Z" fill="context-fill" fill-opacity="context-fill-opacity">
  </path>
</svg>

<svg xmlns="http://www.w3.org/2000/svg" width="16" height="16" viewBox="256 64 576 896"><path fill="context-fill" fill-opacity="context-fill-opacity" d="M336.5 960q-16.5 0-31-6T280 937.25t-17.5-25-6.5-30.75v-739q0-16.5 6.5-30.75t17.5-25T305.5 70t31-6q30 0 52.5 19.5l404.5 346q38.5 33 38.5 82.5 0 24.5-10 45.5t-28.5 37L389 940.5Q366.5 960 336.5 960"/></svg>
